X:1
T:Roe Hunt, The
T:Roe Hunt, The
T:Alexander Walker
C:Alexander Walker
L:1/8
M:2/2
K:E
V:1 treble 
V:1
 c | BEGE BEec | BEGB cFFc | BEGE eagf | ecBA GEE :| B | egfg ecBG | efge fFFd | egfg ecBG | %9
 AcGB eEEd | egfg ecBG | egfe fFFG | GDGB AFAB | cBcf eEE || %14

